X: 10703
T: CALEDONIAN QUADRILLES #3
C: Arranged by W.B. Laybourn
R: jig
B: K\"ohler's Violin Repository, v.1, 1885 p.70 #3
F: http://www.archive.org/details/klersviolinrepos01edin
Z: 2012 John Chambers <jc:trillian.mit.edu>
N: This is a version of "The Campbells Are Coming", with a third part.
M: 6/8
L: 1/8
K: G
uD |\
G>Bd g>dB | d>ed (d2B) | G>Bd g>dB | A>BA (A2B) |\
G>Bd g>dB | d>ef g>fe | e>dc B>cA | A<GG  G2 :|
ud |\
g2(d e)>dB | d>ed def | g2(d e)>dB | A>BA Aba |\
g2(d e)>dB | d>ef g>fe | e>dc B>cA | A<GG G2 "^D.C."|]
uB |\
(e2f) g>fe | (.f2.b) (.b2.B) | (e2f) gfe | ^dfb B3 |\
(e2f) g>fe | (f2c') (b2a) | gfe fed | e3- e2 "_D.C."|]

%%sep 2 1 500

